!!!OTL: 282. Freiheit.
!!!COM: Volksweise
!!!ARE: Europa, Mitteleuropa, Deutschland, Sachsen; Schleswig Holstein
!!!SCT: B0282
!!!TXL: @@DE
!!!YEM: Copyright 1995, estate of Helmut Schaffrath.
**kern	**text
*ICvox	*
*Ivox	*
*M4/4	*
*met(c)	*
*clefG2	*
*k[f#c#g#]	*
*A:	*
!LO:TX:a:t=Im Marſchtakt.	!
{8r	.
8e	Sprichſt
8e	du
8e	ʒum
=1	=1
4cc#	Vo-
4a	-gel:
8r	.
8a	"Komm
8g#	in
8a	mein
=2	=2
4f#	Haus!"
4r	.
8r}	.
{8f#	wird
8f#	er
8f#	dir
=3	=3
4dd	ſa-
4b	-gen:
8r	.
8e	""Jch
8f#	muß
8g#	hin-
=4	=4
4a	-aus,
8r}	.
{8a	muß
4a	ba-
8g#	-den
8a	im
=5	=5
4b	Ae-
8a	-ther
8g#	die
4g#	ir-
8f#	-di-
8g#	-ſche
=6	=6
4f#	Bruſt,
8r}	.
{8f#	muß
4f#	ſin-
8g#	-gen
8g#	die
=7	=7
4a	Lie-
8e	-der,
8cc#	die
4cc#	Lie-
8b	-der
8cc#	der
=8	=8
4a	Luſt.
4r	.
8r}	.
{8a	O
8g#	nein,
8a	o
=9	=9
8f#	nein,
8b	o
8a	nein,
8b	o
4e	nein,
4r}	.
=10	=10
{4.cc#^	oh-
8b	-ne
4b	Frei-
4a	-heit,
=11	=11
4.a^	oh-
8g#	-ne
4g#	Freiheit
8f#	.
8f#	kann
=12	=12
(4e	ich
8f#)	.
8g#	nicht
4a	ſein!
4r}	.
=13	=13
{4.cc#^	Oh-
8b	-ne
8dd	Freiheit,
8cc#	.
8b	oh-
8a	-ne
=14	=14
4g#	Frei-
8f#	-heit
8f#	kann
(4e	ich
8f#)	.
8g#	nicht
=15	=15
4a	ſein!""
4r}	.
==	==
!!!AGN: Stimmungs - Lied
!!!GTL: Trauerlieder (Elegien) und Stimmungslieder
!!!ONB: ESAC (Essen Associative Code) Database: BOEHME
!!!AMT: simple quadruple
!!!AIN: vox
!!!EED: Helmut Schaffrath
!!!EEV: 1.0
!!Aus Volksmund in Sachſen um 1865 u. Schleswig Holſtein 1891.
!!@@COMMENT:"Das Lied wurde ſeit ungefähr 1860 von Männerchören viel geſungen und iſt dadurch populär geworden."
!!@@END:
!!!URL-scan: https://archive.org/details/BoehmeVtLieder1895/page/n239/mode/2up
!!!ENC: Anna Maria Matuszewska
!!!EEV: 2024/03/07
*-	*-
